assets/images/avatar/Avatar 06.svg

<svg fill="none" height="128" viewBox="0 0 128 128" width="128" xmlns="http://www.w3.org/2000/svg" xmlns:xlink="http://www.w3.org/1999/xlink"><mask id="a" height="122" maskUnits="userSpaceOnUse" width="122" x="3" y="3"><path clip-rule="evenodd" d="m63.5428 3.35875c17.5523-.32866 37.7852 12.03805 54.8952 33.03965 11.146 13.6796 4.943 33.521-.485 50.3097-4.693 14.5119-13.041 27.7309-26.8458 34.2169-13.6496 6.413-28.7663 3.63-42.9807-1.409-17.2761-6.125-37.8165-11.723-43.35029-29.196-5.82502-18.3926 3.83197-38.6029 17.59619-52.1228 4.1419-18.5337 24.2586-34.52179 41.1704-34.83845z" fill="#eff6f7" fill-rule="evenodd"/></mask><g mask="url(#a)"><path clip-rule="evenodd" d="m69.2775 26.9635c17.5523-.3286 38.0735-4.1745 49.1605 9.4349 11.145 13.6796 4.943 33.521-.485 50.3097-4.693 14.5119-13.041 27.7309-26.8458 34.2169-13.6496 6.413-28.7663 3.63-42.9807-1.409-17.2761-6.125-37.8165-11.723-43.35029-29.196-5.82502-18.3926 3.83197-38.6029 17.59619-52.1228 12.0667-11.8525 29.9933-10.917 46.9051-11.2337z" fill="#eff6f7" fill-rule="evenodd"/><path d="m109.449 103.131c-10.2186-5.7358-5.294-2.941-17.0666-8.8565-9.664-4.8579-11.6267-13.9216-11.6267-22.9913 0-7.4514-7.1771-11.5809-14.5889-12.608-7.4027 1.0393-14.5829 5.1566-14.5829 12.608 0 9.0697-1.9657 18.1334-11.6266 22.9913-11.7669 5.9155-8.2286 3.1207-18.4442 8.8565-12.27887 6.894-14.93336 15.979-17.2465 28.395h122.4294c-2.311-12.416-4.971-21.501-17.247-28.395z" fill="#a9b4c6"/><path d="m98.7001 131.526h-66.6697c1.9413-10.582 2.4625-22.596.6095-33.7803 1.5634-.6735 3.7303-1.667 7.3143-3.4682.8519-.4281 1.6782-.9053 2.4747-1.4293 1.9047 7.9638 9.4476 21.0288 22.9363 21.2088 14.0709-.202 21.6839-14.44 23.1619-22.248 1.1975.9607 2.4952 1.7894 3.8705 2.4716 2.6758 1.3379 4.4861 2.2278 5.7905 2.8769-1.9749 11.3585-1.4659 23.6095.512 34.3685z" fill="#e7baef"/><path d="m81.7066 80.4657c-.667-3.0142-.983-6.0956-.9417-9.1825 0-7.4514-7.1771-11.5809-14.5889-12.608-7.4119 1.0393-14.592 5.1566-14.592 12.608 0 6.9882-1.1825 13.9642-6.138 19.0233 10.0206 2.496 28.3856 3.3158 36.2606-9.8408z" fill="#51527a"/><path d="m104.329 41.8188c.046 1.5787-1.804 2.5722-2.462 4.0137-.762 1.6701.49 2.9745.777 4.5715.481 2.688-2.341 3.008-3.5934 4.7634-1.1246 1.5756.0305 3.392-.4419 5.1017-.448 1.6274-2.3832 1.6427-3.6572 2.2217-2.182.9783-1.7158 2.7429-2.2887 4.6751-.6553 2.2369-2.4564 1.7524-4.3672 1.9535-2.7002.2834-2.24 2.7429-3.6084 4.4099-.7985.9661-1.9688.8472-3.0476.5638-1.6244-.4175-2.9075-.6095-4.0381.7772-.7924.96-1.2404 2.4015-2.5844 2.7428-1.4933.3749-3.4194-1.7615-4.9798-1.5726-1.5604.189-2.9471 2.7429-4.5166 2.7429s-2.9714-2.5478-4.4922-2.7429c-1.5207-.195-3.5048 1.9444-4.995 1.5726-1.6884-.4236-2.0358-2.4868-3.3524-3.392-1.3867-.9539-2.9349.1006-4.4282.1036-2.304 0-2.2217-2.0388-3.1086-3.584-1.3592-2.3741-3.1482-1.1154-5.2632-1.8682-1.9383-.6857-1.3989-2.7093-1.8773-4.2666-.6888-2.2522-2.6484-2.0389-4.3978-3.0172-2.182-1.219-.6918-3.3036-.9813-5.248-.3048-2.0693-2.5204-2.3558-3.6754-3.779-1.597-1.9657.9478-3.8004.7192-5.8697-.2072-1.8926-2.7123-2.6545-2.7428-4.6507-.0305-1.6 1.7676-2.5143 2.3283-3.8827.7802-1.8895-.9478-3.3523-1.0971-5.1809-.1676-2.0297 2.0511-2.4381 3.1848-3.5962 1.9565-2.0145-.8595-6.0038 2.0144-7.2168 1.4964-.6308 3.3524-.451 3.9863-2.2765.448-1.3227 0-3.325 1.1337-4.3551 1.8286-1.6731 4.8.2072 6.2477-2.2827.6948-1.1885.7009-2.8983 2.1333-3.52302 1.4324-.62476 2.7124.39312 4.096.44492 1.3836.0519 2.243-.84415 3.0019-1.94739.9356-1.36229 1.9779-2.1577 3.6571-1.68228 1.4995.42972 2.8008 1.62743 4.4435.96914 1.9078-.7619 3.0232-3.19999 5.3455-1.99618 1.5787.81371 2.819 2.66056 4.8183 1.85599 1.3287-.53334 2.819-1.70362 4.2301-.71924 1.155.80153 1.5573 2.32838 2.8099 3.07809 1.8956 1.13367 3.9619-1.03923 5.7904.04877 1.2618.7558 1.4903 2.7093 2.2919 3.8522 1.4141 2.0114 3.9954.3048 5.7173 1.667 1.1246.8808.8686 2.5478 1.1124 3.8035.4876 2.5325 2.7428 2.0205 4.4952 3.0994 1.8284 1.1185.9143 3.1573.7924 4.8427-.1737 2.6362 2.478 2.5996 3.611 4.4038 1.283 2.0388-1.313 3.9192-1.051 5.9946.18 1.4233 1.454 2.1547 2.066 3.3524.155.3195.238.669.244 1.024z" fill="#28213d"/><g fill="#a9b4c6"><path d="m89.6944 58.0017c-.7315 2.048-2.2004 4.6263-4.0046 5.7905-1.7585 1.1367-3.005.2499-3.1512-1.9383-.1524-2.24.3565-6.0343 1.9382-7.6831 1.5818-1.6487 4.7117-1.5786 5.5223.9814.2469.7741.0732 1.792-.3047 2.8495z"/><path d="m80.0183 35.6504c-3.1787-4.8762-9.7158-4.739-14.8724-4.9554-4.7512-.1981-11.3493.5729-14.2019 4.9554-2.0571 3.1634-5.5162 10.7795-5.3547 16.6095.1524 5.565.7894 9.9688 2.7185 15.2564 4.7208 12.9585 11.7211 16.1524 13.123 16.4572 2.6733.5394 5.4274.5394 8.1006 0 1.4019-.3048 8.4023-3.4926 13.1231-16.4572 1.9291-5.2876 2.5691-9.6914 2.7215-15.2564.1585-5.83-3.3006-13.4461-5.3577-16.6095z"/><path d="m40.7375 58.0017c.7314 2.048 2.2004 4.6263 4.0046 5.7905s3.0049.2499 3.1512-1.9383c.1524-2.24-.3565-6.0343-1.9413-7.6831-1.5848-1.6487-4.7116-1.5786-5.5193.9814-.2468.7741-.0731 1.792.3048 2.8495z"/></g></g></svg>

<svg width="128" height="128" viewBox="0 0 128 128" fill="none" xmlns="http://www.w3.org/2000/svg">
<mask id="mask0_457_1651" style="mask-type:alpha" maskUnits="userSpaceOnUse" x="3" y="3" width="122" height="122">
<path fill-rule="evenodd" clip-rule="evenodd" d="M63.5428 3.35875C81.0951 3.03009 101.328 15.3968 118.438 36.3984C129.584 50.078 123.381 69.9194 117.953 86.7081C113.26 101.22 104.912 114.439 91.1072 120.925C77.4576 127.338 62.3409 124.555 48.1265 119.516C30.8504 113.391 10.31 107.793 4.77621 90.32C-1.04881 71.9274 8.60818 51.7171 22.3724 38.1972C26.5143 19.6635 46.631 3.67541 63.5428 3.35875Z" fill="#EFF6F7"/>
</mask>
<g mask="url(#mask0_457_1651)">
<path fill-rule="evenodd" clip-rule="evenodd" d="M69.2775 26.9635C86.8298 26.6349 107.351 22.789 118.438 36.3984C129.583 50.078 123.381 69.9194 117.953 86.7081C113.26 101.22 104.912 114.439 91.1072 120.925C77.4576 127.338 62.3409 124.555 48.1265 119.516C30.8504 113.391 10.31 107.793 4.77621 90.32C-1.04881 71.9274 8.60818 51.7171 22.3724 38.1972C34.4391 26.3447 52.3657 27.2802 69.2775 26.9635Z" fill="#EFF6F7"/>
<path d="M109.449 103.131C99.2304 97.3952 104.155 100.19 92.3824 94.2745C82.7184 89.4166 80.7557 80.3529 80.7557 71.2832C80.7557 63.8318 73.5786 59.7023 66.1668 58.6752C58.7641 59.7145 51.5839 63.8318 51.5839 71.2832C51.5839 80.3529 49.6182 89.4166 39.9573 94.2745C28.1904 100.19 31.7287 97.3952 21.5131 103.131C9.23423 110.025 6.57974 119.11 4.2666 131.526H126.696C124.385 119.11 121.725 110.025 109.449 103.131Z" fill="#A9B4C6"/>
<path d="M98.7001 131.526H32.0304C33.9717 120.944 34.4929 108.93 32.6399 97.7457C34.2033 97.0722 36.3702 96.0787 39.9542 94.2775C40.8061 93.8494 41.6324 93.3722 42.4289 92.8482C44.3336 100.812 51.8765 113.877 65.3652 114.057C79.4361 113.855 87.0491 99.617 88.5271 91.809C89.7246 92.7697 91.0223 93.5984 92.3976 94.2806C95.0734 95.6185 96.8837 96.5084 98.1881 97.1575C96.2132 108.516 96.7222 120.767 98.7001 131.526Z" fill="#E7BAEF"/>
<path d="M81.7066 80.4657C81.0396 77.4515 80.7236 74.3701 80.7649 71.2832C80.7649 63.8318 73.5878 59.7023 66.176 58.6752C58.7641 59.7145 51.584 63.8318 51.584 71.2832C51.584 78.2714 50.4015 85.2474 45.446 90.3065C55.4666 92.8025 73.8316 93.6223 81.7066 80.4657Z" fill="#51527A"/>
<path d="M104.329 41.8188C104.375 43.3975 102.525 44.391 101.867 45.8325C101.105 47.5026 102.357 48.807 102.644 50.404C103.125 53.092 100.303 53.412 99.0506 55.1674C97.926 56.743 99.0811 58.5594 98.6087 60.2691C98.1607 61.8965 96.2255 61.9118 94.9515 62.4908C92.7695 63.4691 93.2357 65.2337 92.6628 67.1659C92.0075 69.4028 90.2064 68.9183 88.2956 69.1194C85.5954 69.4028 86.0556 71.8623 84.6872 73.5293C83.8887 74.4954 82.7184 74.3765 81.6396 74.0931C80.0152 73.6756 78.7321 73.4836 77.6015 74.8703C76.8091 75.8303 76.3611 77.2718 75.0171 77.6131C73.5238 77.988 71.5977 75.8516 70.0373 76.0405C68.4769 76.2295 67.0902 78.7834 65.5207 78.7834C63.9512 78.7834 62.5493 76.2356 61.0285 76.0405C59.5078 75.8455 57.5237 77.9849 56.0335 77.6131C54.3451 77.1895 53.9977 75.1263 52.6811 74.2211C51.2944 73.2672 49.7462 74.3217 48.2529 74.3247C45.9489 74.3247 46.0312 72.2859 45.1443 70.7407C43.7851 68.3666 41.9961 69.6253 39.8811 68.8725C37.9428 68.1868 38.4822 66.1632 38.0038 64.6059C37.315 62.3537 35.3554 62.567 33.606 61.5887C31.424 60.3697 32.9142 58.2851 32.6247 56.3407C32.3199 54.2714 30.1043 53.9849 28.9493 52.5617C27.3523 50.596 29.8971 48.7613 29.6685 46.692C29.4613 44.7994 26.9562 44.0375 26.9257 42.0413C26.8952 40.4413 28.6933 39.527 29.254 38.1586C30.0342 36.2691 28.3062 34.8063 28.1569 32.9777C27.9893 30.948 30.208 30.5396 31.3417 29.3815C33.2982 27.367 30.4822 23.3777 33.3561 22.1647C34.8525 21.5339 36.7085 21.7137 37.3424 19.8882C37.7904 18.5655 37.3424 16.5632 38.4761 15.5331C40.3047 13.86 43.2761 15.7403 44.7238 13.2504C45.4186 12.0619 45.4247 10.3521 46.8571 9.72738C48.2895 9.10262 49.5695 10.1205 50.9531 10.1723C52.3367 10.2242 53.1961 9.32815 53.955 8.22491C54.8906 6.86262 55.9329 6.06721 57.6121 6.54263C59.1116 6.97235 60.4129 8.17006 62.0556 7.51177C63.9634 6.74987 65.0788 4.31178 67.4011 5.51559C68.9798 6.3293 70.2201 8.17615 72.2194 7.37158C73.5481 6.83824 75.0384 5.66796 76.4495 6.65234C77.6045 7.45387 78.0068 8.98072 79.2594 9.73043C81.155 10.8641 83.2213 8.6912 85.0498 9.7792C86.3116 10.535 86.5401 12.4885 87.3417 13.6314C88.7558 15.6428 91.3371 13.9362 93.059 15.2984C94.1836 16.1792 93.9276 17.8462 94.1714 19.1019C94.659 21.6344 96.9142 21.1224 98.6666 22.2013C100.495 23.3198 99.5809 25.3586 99.459 27.044C99.2853 29.6802 101.937 29.6436 103.07 31.4478C104.353 33.4866 101.757 35.367 102.019 37.4424C102.199 38.8657 103.473 39.5971 104.085 40.7948C104.24 41.1143 104.323 41.4638 104.329 41.8188V41.8188Z" fill="#28213D"/>
<path d="M89.6944 58.0017C88.9629 60.0497 87.494 62.628 85.6898 63.7922C83.9313 64.9289 82.6848 64.0421 82.5386 61.8539C82.3862 59.6139 82.8951 55.8196 84.4768 54.1708C86.0586 52.5221 89.1885 52.5922 89.9991 55.1522C90.246 55.9263 90.0723 56.9442 89.6944 58.0017Z" fill="#A9B4C6"/>
<path d="M80.0183 35.6504C76.8396 30.7742 70.3025 30.9114 65.1459 30.695C60.3947 30.4969 53.7966 31.2679 50.944 35.6504C48.8869 38.8138 45.4278 46.4299 45.5893 52.2599C45.7417 57.8249 46.3787 62.2287 48.3078 67.5163C53.0286 80.4748 60.0289 83.6687 61.4308 83.9735C64.1041 84.5129 66.8582 84.5129 69.5314 83.9735C70.9333 83.6687 77.9337 80.4809 82.6545 67.5163C84.5836 62.2287 85.2236 57.8249 85.376 52.2599C85.5345 46.4299 82.0754 38.8138 80.0183 35.6504Z" fill="#A9B4C6"/>
<path d="M40.7375 58.0017C41.4689 60.0497 42.9379 62.628 44.7421 63.7922C46.5463 64.9564 47.747 64.0421 47.8933 61.8539C48.0457 59.6139 47.5368 55.8196 45.952 54.1708C44.3672 52.5221 41.2404 52.5922 40.4327 55.1522C40.1859 55.9263 40.3596 56.9442 40.7375 58.0017Z" fill="#A9B4C6"/>
</g>
</svg>
